X:1
T:Title
%%score { ( 1 4 ) | ( 2 3 ) }
L:1/8
Q:1/4=85
M:2/4
K:Bb
V:1 treble nm="Grand Piano"
V:4 treble 
V:2 bass 
V:3 bass 
V:1
 [DF][DB] [Fd][FB] | [Ec]2 [DB]2 | [EG][GB] [FA][EG] | [DF]4 | FA Ac | [Fd]2 [Fc]2 | %6
w: B.~C.~Unseld * * *||||||
 [=Ed][Ec] [EB][EG] | F4 | FA ce | [Ge]2 [Fd]2 | [=Ed][Ec] [EG][Ed] | [Fc]4 | [Fd]c [FB][FA] | %13
w: |||||||
 cG AB | %14
w: |
 F4[K:bass][Q:1/4=84][Q:1/4=83][Q:1/4=81][Q:1/4=80][Q:1/4=79][Q:1/4=78][Q:1/4=76][Q:1/4=75][Q:1/4=74][Q:1/4=73][Q:1/4=71][Q:1/4=70][Q:1/4=69][Q:1/4=68][Q:1/4=66][Q:1/4=65] | %15
w: |
 [F,B,D]4 |] %16
w: |
V:2
 [B,,B,][B,,B,] [B,,B,][D,B,] | [F,A,]2 [B,,B,]2 | [E,B,][E,B,] [E,B,][E,B,] | [B,,B,]4 | %4
 [F,A,C][F,CF] [F,CF][F,A,F] | [B,,B,]2 [F,A,]2 | [C,B,][C,B,] [C,G,][C,B,] | [F,A,]4 | %8
 [F,A,][F,CF] [F,A,F][F,A,F] | [B,,B,]2 [B,,B,]2 | [C,B,][C,B,] [C,B,][C,B,] | [F,A,]4 | %12
 [B,,B,][A,F] [D,B,][D,B,] | [E,E]-[E,B,E] [=E,_D]-[E,G,D] | .[B,D]2 z2 | B,,4 |] %16
V:3
 x4 | x4 | x4 | x4 | x4 | x4 | x4 | x4 | x4 | x4 | x4 | x4 | x4 | .G,2 .A,2 | F,-[F,A,] G,F,, | %15
 x4 |] %16
V:4
 x4 | x4 | x4 | x4 | x4 | x4 | x4 | x4 | x4 | x4 | x4 | x4 | x4 | x4 | z C[K:bass] B,[F,A,E] | %15
 x4 |] %16

